X:1
T:James Gibb editions
T:Credo, quod Redemptor - Canniciari
T:#
%%score [ 1 2 3 4 ]
L:1/8
Q:1/4=72
M:4/4
K:G
V:1 treble nm="Soprano" snm="S"
V:2 treble nm="Alto" snm="A"
V:3 treble-8 nm="Tenor" snm="T"
V:4 bass nm="Bass" snm="B"
V:1
"^moderato""^Pompeo Canniciari\n(1670-1744)"!p!!<(! B4"^," c4!<)! | %1
w: Cre- do,|
"^Credo, quod Redemptor"!f! d2 d2 c2 G2 | A2 B2 !>!A4 |"^," A2!p! A2!<(! A2 A2 | %4
w: quod Re- dem- ptor|me- us vi-|vit, et in no-|
 B2 BB!<)!!>(! c4!>)! |[M:4/4]"^," A2!mf! d2 d2 d2 |!>(! d2 cc!>)! c4 |"^," B2 B2 (!>!dcBA | %8
w: vis- si- mo di-|e, et in no-|vis- si- mo di-|e de ter\- * * *|
 G4)"^," =F3 c | (!>!BAG=F E2) G2 | !courtesy!^F2 G2 (F2 G2- | G2)!>(! F2 !fermata!G4!>)! || %12
w: * ra, de|ter\- * * * * ra|sur\- re- ctu\- *|* rus sum;|
!p! F3 F F2 F2 | !>!G4 F4 | z8 | z2!mf! D2 (GABG | F2 F2 G2"^," G2 | G2 G2 F2!>(! G2- | %18
w: et in car- ne|me- a||vi- de\- * * *|* bo De- um,|Sal- va- to- rem|
 G2 F2!>)! !fermata!G4 ||"^Solo"[Q:1/4=80] A4 B3!<(! B | B2 B2 c2 d2!<)! | %21
w: * me- um.|Qui La- za-|rum re- su- sci-|
[Q:1/4=80][Q:1/4=80][Q:1/4=80][Q:1/4=80]!>(! c4"^," B2 B2!>)! | A2 G2 FGAB | c2) A2 G2 B2 | %24
w: ta- sti a|mo- nu- men\- * * *|* to foe- ti-|
 B2!f! B2 c2 d2 | e2 G2!mp! (F2 G2- | G2) F2 !fermata!G4 || %27
w: dum, a mo- nu-|men- to foe\- *|* ti- dum.|
[M:3/2]!mf!"^moderato""^Tutti"[Q:1/4=162] G4 G4 G4 | F6 F2 F4 | z4"^cresc." d4 c4 | _B6 B2 B4 | %31
w: Tu e- is,|Do- mi- ne,|do- na|re- qui- em,|
 z4 A4 =B4 |[M:3/2][Q:1/4=162][Q:1/4=162][Q:1/4=162][Q:1/4=162] !>!^c6 c2"^," c4 |!f! d4 d4 d4 | %34
w: do- na|re- qui- em|et lo- cum|
 d8 d4 | d8!>(! ^c4 | !fermata!d12!>)! ||[M:4/4]"^Solo"!mf![Q:1/4=80] d6 d2 | %38
w: in- dul-|gen- ti-|ae.|Do- mi-|
[M:4/4][Q:1/4=80]"^,"[Q:1/4=80][Q:1/4=80][Q:1/4=80] B4 A2 A2 | B2 B2 B2 d2 |"^," d4 B2 G2 | %41
w: ne, quan- do,|quan- do ve- ne-|ris, quan- do|
 (F A2) A"^," A2 B2 | A4 !>!B2 G2 | (A2 B2)"^," G4 | A2 B2 c2 d2 | c4"^," B2 B2 | c2 c2 c2 c2 | %47
w: ve\- * ne- ris ju-|di- ca- re|ter\- * ram,|u- bi me ab-|scon- dam a|vul- tu i- rae|
!>(! (c2 B2) !fermata!c4!>)! ||"^Tutti"!mf![Q:1/4=81] A2 AA c2 d2 | %49
w: tu\- * ae?|Qui- a pec- ca- vi|
[Q:1/4=81][Q:1/4=81][Q:1/4=81][Q:1/4=81] d2"^," G4!p! G2 | c2 c2!>(! A4!>)! |!pp! !fermata!B8 || %52
w: ni- mis in|vi- ta me\-|a.|
[Q:1/4=88] z4!mf! A4- | A2 G2"^," F3 G | (A!<(!B c2 d4!<)! | %55
w: Re\-|* qui- em ae-|ter- * * *|
[Q:1/4=88][Q:1/4=88][Q:1/4=88][Q:1/4=88] A2 Bc dcBA |!>(! BA G2)!>)!"^," D2!p! A2 | %57
w: |* * * nam do-|
!<(! (B2 c2)!<)! d2 B2 |!mf!!>(! A3 A!>)! B4 | z2 B2 d3 d |!<(! (cBcd e!<)!E/=F/ G>)G | %61
w: na * e- is,|Do- mi- ne,|et lux per-|pe\- * * * * * * * tu-|
"^," G2 !>!A2 _B2 B2 | (!>!_B2 A2)"^," G2!p![Q:1/4=87] G2 | %63
w: a lu- ce- at|e\- * is, lu-|
"^rit."[Q:1/4=85] A2[Q:1/4=83] A2[Q:1/4=81] (=B2[Q:1/4=80] A2 | %64
w: ce- at e\- *|
[Q:1/4=77]!>(! G4)[Q:1/4=76] !fermata!!courtesy!^F4!>)! |] %65
w: * is.|
V:2
!p!!<(! G4"^," G4!<)! |!f! F2 G2 G2 G2 | F2 G2 !>!F4 | F4 z2!p!!<(! D2 | D2 D2 E2 E!<)!E | %5
w: Cre- do,|quod Re- dem- ptor|me- us vi-|vit, et|in no- vis- si- mo|
[M:4/4]!>(! F2!>)!"^," F2!mf! F2 F2 |!>(! G2 GG!>)! A4 | G4 z2 G2 | (!>!G=FED C2 FE | %9
w: di- e, in no-|vis- si- mo di-|e de|ter\- * * * * * *|
 D4 G=F)"^," E2 | D2 ^C2 !>!D4- | D2!>(! D2 !fermata!D4!>)! ||!p! D3 D D2 D2 | (!>!D2 ^C2) D4 | %14
w: * * * ra|sur- re- ctu\-|* rus sum;|et in car- ne|me\- * a|
 z2!mf! D2 (GABG | FGFE D2) D2 | D4"^," D2 ED | D2 E2!>(! D4- | D4!>)! !fermata!D4 || %19
w: vi- de\- * * *|* * * * * bo|De- um, Sal- va-|to- rem me\-|* um.|
"^Solo" F4 G3!<(! G | G2 G2 G2 G2!<)! |!>(! G4 G4!>)! | z4 z2 F2 | G2 A2 (BA G2) | G2!f! G2 E2 D2 | %25
w: Qui La- za-|rum re- su- sci-|ta- sti|a|mo- nu- men\- * *|to, a mo- nu-|
 C2 ^C2!mp! D4- | D2 D2 !fermata!D4 ||[M:3/2]"^Tutti"!mf! E4 E4 ^C4 | D6 D2 D4 | %29
w: men- to foe\-|* ti- dum.|Tu e- is,|Do- mi- ne,|
 z4"^cresc." G4 G4 | G6 G2 G4 | z4 A4 A4 |[M:3/2] !>!A6 A2"^," A4 |!f! A4 A4 A4 | A4 G8 | %35
w: do- na|re- qui- em,|do- na|re- qui- em|et lo- cum|in- dul-|
 A8!>(! A4 | !fermata!!courtesy!^F12!>)! ||[M:4/4]"^Solo" z4!mf! G4- |[M:4/4] G2 G2"^," F4 | %39
w: gen- ti-|ae.|Do\-|* mi- ne,|
 G2 G2 D3 E |"^," F4 D2 E2 | F3 F"^," F2 G2 | E2 !>!F2 G4 | F4"^," E4 | F2 G2 E2 G2 | %45
w: quan- do ve- ne-|ris, quan- do|ve- ne- ris ju-|di- ca- re|ter- ram,|u- bi me ab-|
 (G2 F2)"^," G2 G2 | G2 E2 A2 G2 |!>(! =F4 !fermata!G4!>)! ||!mf!"^Tutti" !courtesy!^F2 FF G2 A2 | %49
w: scon\- * dam a|vul- tu i- rae|tu- ae?|Qui- a pec- ca- vi|
 D4"^," D2!p! G2 | G2 G2!>(! (G2 F2)!>)! |!pp! !fermata!G8 || z8 | z8 |!mf!!<(!!<(! A6 G2!<)!!<)! | %55
w: ni- mis in|vi- ta me\- *|a.|||Re- qui-|
 F2 G2 !>!G4- |!>(! G4!>)!"^," F2!p! F2 |!<(! G4 G2!<)! G2 |!mf!!>(! G2 F2!>)! G4 | z4 z2 D2 | %60
w: em ae- ter\-|* nam do-|na e- is,|Do- mi- ne,|et|
!<(! G3 =F E3!<)! E |"^," E2 !>!=F2 G2 G2 | !>!=F4"^," E2!p! D2 |"^rit." E2 D2 (D4- | %64
w: lux per- pe- tu-|a lu- ce- at|e- is, lu-|ce- at e\-|
!>(! D2 ^C2) !fermata!D4!>)! |] %65
w: * * is.|
V:3
!p!!<(! d4"^," e4!<)! |!f! d2 d2 e2 d2 | c2 d2 !>!d4 | d4 z4 | z4 z2!p! A2- | %5
w: Cre- do,|quod Re- dem- ptor|me- us vi-|vit,|et|
[M:4/4][K:treble-8]!<(! A2 AA!<)!!>(! B2 BB!>)! | !>!e4 d4- | d4 z2!mf! d2 | (!>!edcB A4 | %9
w: * in no- vis- si- mo|di- e|* de|ter\- * * * *|
 B4)"^," c4 | A2 G2 (A2 B2 | A3)!>(! A !fermata!B4!>)! ||!p! A3 A A2 A2 | !>!G4 A2!mf! A2 | %14
w: * ra|sur- re- ctu\- *|* rus sum;|et in car- ne|me- a vi-|
 (dedc BAGB | A4 B4) | A4 B2"^," B2 | G3 c A2!>(! B2 | A4!>)! !fermata!B4 ||"^Solo" d4 d3!<(! d | %20
w: de\- * * * * * * *||bo De- um,|Sal- va- to- rem|me- um.|Qui La- za-|
 d2 d2 e2 d2!<)! |!>(! e4"^," d2 d2!>)! | c2 B2 A4 | G2 d4 d2 | d2!f! d2 c2 B2 | G2 G2!mp! (A2 B2 | %26
w: rum re- su- sci-|ta- sti a|mo- nu- men-|to foe- ti-|dum, a mon- nu-|men- tum foe\- *|
 A3) A !fermata!B4 ||[M:3/2][K:treble-8]"^Tutti"!mf! c4 c4 G4 | A6 A2 A4 | z4"^cresc." _B4 c4 | %30
w: * ti- dum.|Tu e- is,|Do- mi- ne,|do- na|
 d6 d2 d4 | z4 =f4 f4 |[M:3/2][K:treble-8] !>!e6 e2"^," e4 |!f! d4 d4 d4 | _B8 d4 | e8!>(! e4 | %36
w: re- qui- em,|do- na|re- qui- em|et lo- cum|in- dul-|gen- ti-|
 d12!>)! ||[M:4/4]"^Solo" z8 |[M:4/4][K:treble-8] z4!mf! d4- | d2 d2"^," B4 | A2 A2 B2 ^c2 | %41
w: ae.||Do\-|* mi- ne,|quan- do, quan- do|
 d3 d"^," d2 B2 | !courtesy!=c2 !>!d4 c2- | c2 B2"^," c2 !>!e2 | d4 c2 B2 | !>!c4"^," d2 d2 | %46
w: ve- ne- ris ju-|di- ca- re|* ter- ram, u-|bi me ab-|scon- dam a|
 e2 e2 =f2 c2 |!>(! d4 !fermata!e4!>)! ||!mf!"^Tutti" d2 dd c2 c2 | B4"^," B2!p! d2 | %50
w: vul- tu i- rae|tu- ae?|Qui- a pec- ca- vi|ni- mis in|
 e2 c2!>(! d4!>)! |!pp! !fermata!d8 ||!mf! d6 c2 |"^," B3 c (defd |!<(! e4 d4-!<)! | dedc Bc d2- | %56
w: vi- ta me\-|a.|Re- qui-|em ae- ter\- * * *|||
!>(! d2 ^c2)!>)!"^," d2!p! d2 |!<(! d4 d2!<)! d2 |!mf!!>(! d3 d!>)!"^," d2 B2 | d3 c (BcBA | %60
w: * * nam do-|na e- is|Do- mi- ne, et|lux per- pe\- * * *|
!<(! G3 A/B/ c2)!<)! c2 |"^," c2 !>!c2 d2 c2 | !>!c4"^," c2!p! B2 |"^rit." c2 c2 (Bc d2 | %64
w: * * * * tu-|a lu- ce- at|e- is, lu-|ce- at e\- * *|
!>(! G4) !fermata!A4!>)! |] %65
w: * is.|
V:4
!p!!<(! G,4 C,2!<)!!f! C2- | C2 B,2 C2 B,2 | A,2 G,2 !>!D,4 | D,4 z4 | z8 | %5
w: Cre- do quod|* Re- dem- ptor|me- us vi-|vit,||
[M:4/4] z2!<(! D,4 D,!<)!D, |!>(! E,2 E,E,!>)! F,4 |"^," G,2!mf! G,2 (!>!B,A,G,=F, | %8
w: et in no-|vis- si- mo di-|e de ter\- * * *|
 E,4)"^," =F,2 F,2 | (!>!G,=F,E,D, C,2) C,2 | D,2 E,2 !>!D,4- | D,2!>(! D,2 !fermata!G,,4!>)! || %12
w: * ra, de|ter\- * * * * ra|sur- re- ctu\-|* rus sum;|
!p! D,3 D, D,2 D,2 | !>!E,4 D,4 | z4 z2!mf! G,,2 | (D,E,D,C, B,,A,,G,,B,, | D,2 D,2 G,2"^," G,2 | %17
w: et in car- ne|me- a|vi-|de\- * * * * * * *|* bo De- um,|
 B,,2 C,2 D,2!>(! D,2 | D,4!>)! !fermata!G,,4 ||"^Solo" D,4 G,3!<(! G, | G,2 G,2 C2 B,2!<)! | %21
w: Sal- va\-- to- rem|me- um.|Qui La- za-|rum re- su- sci-|
!>(! C4 G,4!>)! | z4 z2 D,2 | E,2 F,2 G,4 | G,2!f! G,,2 A,,2 B,,2 | C,2 E,2!mp! D,4- | %26
w: ta- sti|a|mo- nu- men-|to, a mon- nu-|men- to foe\-|
 D,2 D,2 !fermata!G,,4 ||[M:3/2]"^Tutti"!mf! C,4 C,4 E,4 | D,6 D,2 D,4 | z4"^cresc." G,4 A,4 | %30
w: * ti- dum.|Tu e- is,|Do- mi- ne,|do- na|
 _B,6 B,2 B,4 | z4 =F,4 G,4 |[M:3/2] !>!A,6 A,2"^," A,4 |!f! =F,4 F,4 F,4 | G,8 _B,4 | %35
w: re- qui- em,|do- na|re- qui- em|et lo- cum|in- dul-|
 A,8!>(! A,4 | !fermata!D,12!>)! ||[M:4/4]"^Solo" z8 |[M:4/4] z8 |!mf! G,6 G,2 | F,4 G,2 E,2 | %41
w: gen- ti-|ae.|||Do- mi-|ne, quan- do|
 D,3 D,"^," D,2 G,2- | G,2 F,2 !>!E,2 E,2 | D,4"^," C,2 !>!C2- | C2 B,2 A,2 G,2 | A,4"^," G,2 G,2 | %46
w: ve- ne- ris ju\-|* di- ca- re|ter- ram, u\-|* bì me ab-|scon- dam a|
 E,2 C,2 =F,2 E,2 |!>(! D,4 !fermata!C,4!>)! ||!mf!"^Tutti" D,2 D,D, E,2 ^F,2 | %49
w: vul- tu i- rae|tu- ae?|Qui- a pec- ca- vi|
 G,4"^," G,2!p! B,,2 | C,2 E,2!>(! D,4!>)! |!pp! !fermata!G,,8 || z8 | z4!mf! D4- | %54
w: ni- mis in|vi- ta me\-|a.||Re\-|
 D2!<(! C2"^," B,3 G,!<)! | DCB,A, B,A,G,F, |!>(! E,4)!>)!"^," D,2!p! D2- |!<(! D2 C2!<)! B,2 G,2 | %58
w: * qui- em ae-|ter\- * * * * * * *|* nam do\-|* na e- is,|
!mf!!>(! D,3 D,!>)!"^," G,,2 G,2 | B,3 A, (G,A,G,=F, |!<(! E,=F,E,D, C,3)!<)! C, | %61
w: Do- mi- ne, et|lux per- pe\- * * *|* * * * * tu-|
"^," C,2 =F,4 E,E, | !>!=F,4"^," C,2!p! G,2- |"^rit." G,2 !courtesy!^F,F, (G,2 F,2 | %64
w: a lu- ce- at|e- is, lu\-|* ce- at e\- *|
!>(! E,4) !fermata!D,4!>)! |] %65
w: * is.|

